Newaita-dark/actions/22/view-statistics.svg

<svg height="22" viewBox="0 0 22 22" width="22" xmlns="http://www.w3.org/2000/svg"><g fill="#e0e0e0"><path d="m11.371094 2.902344h.910156c.25 0 .453125.203125.453125.453125v16.371093c0 .253907-.203125.457032-.453125.457032h-.910156c-.253906 0-.457032-.203125-.457032-.457032v-16.371093c0-.25.203126-.453125.457032-.453125zm0 0"/><path d="m15.007812 7.449219h.910157c.25 0 .453125.203125.453125.453125v11.824218c0 .253907-.203125.457032-.453125.457032h-.910157c-.25 0-.453124-.203125-.453124-.457032v-11.824218c0-.25.203124-.453125.453124-.453125zm0 0"/><path d="m4.09375 14.726562h.910156c.25 0 .453125.203126.453125.453126v4.546874c0 .253907-.203125.457032-.453125.457032h-.910156c-.25 0-.457031-.203125-.457031-.457032v-4.546874c0-.25.207031-.453126.457031-.453126zm0 0"/><path d="m7.730469 10.175781h.910156c.25 0 .457031.207031.457031.457031v9.09375c0 .253907-.207031.457032-.457031.457032h-.910156c-.25 0-.453125-.203125-.453125-.457032v-9.09375c0-.25.203125-.457031.453125-.457031zm0 0"/><path d="m18.648438 17.453125h.90625c.253906 0 .457031.203125.457031.457031v1.816406c0 .253907-.203125.457032-.457031.457032h-.90625c-.253907 0-.457032-.203125-.457032-.457032v-1.816406c0-.253906.203125-.457031.457032-.457031zm0 0"/></g></svg>

<?xml version="1.0" encoding="UTF-8"?>
<svg xmlns="http://www.w3.org/2000/svg" xmlns:xlink="http://www.w3.org/1999/xlink" width="22px" height="22px" viewBox="0 0 22 22" version="1.1">
<g id="surface1">
<path style=" stroke:none;fill-rule:nonzero;fill:rgb(87.843138%,87.843138%,87.843138%);fill-opacity:1;" d="M 11.371094 2.902344 L 12.28125 2.902344 C 12.53125 2.902344 12.734375 3.105469 12.734375 3.355469 L 12.734375 19.726562 C 12.734375 19.980469 12.53125 20.183594 12.28125 20.183594 L 11.371094 20.183594 C 11.117188 20.183594 10.914062 19.980469 10.914062 19.726562 L 10.914062 3.355469 C 10.914062 3.105469 11.117188 2.902344 11.371094 2.902344 Z M 11.371094 2.902344 "/>
<path style=" stroke:none;fill-rule:nonzero;fill:rgb(87.843138%,87.843138%,87.843138%);fill-opacity:1;" d="M 15.007812 7.449219 L 15.917969 7.449219 C 16.167969 7.449219 16.371094 7.652344 16.371094 7.902344 L 16.371094 19.726562 C 16.371094 19.980469 16.167969 20.183594 15.917969 20.183594 L 15.007812 20.183594 C 14.757812 20.183594 14.554688 19.980469 14.554688 19.726562 L 14.554688 7.902344 C 14.554688 7.652344 14.757812 7.449219 15.007812 7.449219 Z M 15.007812 7.449219 "/>
<path style=" stroke:none;fill-rule:nonzero;fill:rgb(87.843138%,87.843138%,87.843138%);fill-opacity:1;" d="M 4.09375 14.726562 L 5.003906 14.726562 C 5.253906 14.726562 5.457031 14.929688 5.457031 15.179688 L 5.457031 19.726562 C 5.457031 19.980469 5.253906 20.183594 5.003906 20.183594 L 4.09375 20.183594 C 3.84375 20.183594 3.636719 19.980469 3.636719 19.726562 L 3.636719 15.179688 C 3.636719 14.929688 3.84375 14.726562 4.09375 14.726562 Z M 4.09375 14.726562 "/>
<path style=" stroke:none;fill-rule:nonzero;fill:rgb(87.843138%,87.843138%,87.843138%);fill-opacity:1;" d="M 7.730469 10.175781 L 8.640625 10.175781 C 8.890625 10.175781 9.097656 10.382812 9.097656 10.632812 L 9.097656 19.726562 C 9.097656 19.980469 8.890625 20.183594 8.640625 20.183594 L 7.730469 20.183594 C 7.480469 20.183594 7.277344 19.980469 7.277344 19.726562 L 7.277344 10.632812 C 7.277344 10.382812 7.480469 10.175781 7.730469 10.175781 Z M 7.730469 10.175781 "/>
<path style=" stroke:none;fill-rule:nonzero;fill:rgb(87.843138%,87.843138%,87.843138%);fill-opacity:1;" d="M 18.648438 17.453125 L 19.554688 17.453125 C 19.808594 17.453125 20.011719 17.65625 20.011719 17.910156 L 20.011719 19.726562 C 20.011719 19.980469 19.808594 20.183594 19.554688 20.183594 L 18.648438 20.183594 C 18.394531 20.183594 18.191406 19.980469 18.191406 19.726562 L 18.191406 17.910156 C 18.191406 17.65625 18.394531 17.453125 18.648438 17.453125 Z M 18.648438 17.453125 "/>
</g>
</svg>
